static/assets/icons/popicons/eye-crossed.svg

<svg width="24" height="24"  viewBox="0 0 24 24" fill="currentColor" xmlns="http://www.w3.org/2000/svg">
<path fill-rule="evenodd" clip-rule="evenodd" d="M19.0756 17.8126C17.5067 19.0941 15.2205 20 12 20C8.11297 20 5.58698 18.6803 4.04049 16.9733C2.5183 15.2931 2 13.2977 2 12C2 10.7023 2.5183 8.7069 4.04049 7.02671C4.69273 6.30678 5.5192 5.65573 6.54852 5.14353L7.57688 6.18355L7.67235 6.2801C6.58978 6.73977 5.78008 7.35984 5.17925 8.02303C3.93013 9.4018 3.52468 11.0318 3.52468 12C3.52468 12.9682 3.93013 14.5982 5.17925 15.977C6.40408 17.3289 8.49692 18.5017 12 18.5017C14.8258 18.5017 16.7339 17.7386 18.009 16.7339L18.336 17.0645L19.0756 17.8126ZM20.0481 16.8739C21.5019 15.2149 22 13.2722 22 12C22 10.7023 21.4817 8.7069 19.9595 7.02671C18.413 5.31971 15.887 4 12 4C10.4328 4 9.08687 4.21453 7.93717 4.58247L9.14148 5.80473C9.97042 5.61021 10.9179 5.49832 12 5.49832C15.5031 5.49832 17.5959 6.67107 18.8208 8.02303C20.0699 9.4018 20.4753 11.0318 20.4753 12C20.4753 12.9252 20.1051 14.4548 18.9821 15.792L20.0481 16.8739ZM15.7641 12.526C15.7838 12.3523 15.7934 12.1766 15.7934 12C15.7934 11.0199 15.4962 10.0648 14.8333 9.34639C14.1604 8.61698 13.1856 8.21314 12 8.21314C11.8414 8.21314 11.6866 8.22036 11.5357 8.23463L15.7641 12.526ZM10.0375 8.67201C9.70861 8.84915 9.41679 9.07528 9.16667 9.34639C8.50383 10.0648 8.20655 11.0199 8.20655 12C8.20655 12.9801 8.50383 13.9352 9.16667 14.6536C9.83961 15.383 10.8144 15.7869 12 15.7869C13.1856 15.7869 14.1604 15.383 14.8333 14.6536C15.0188 14.4526 15.1756 14.233 15.3054 13.9996L14.0683 12.7486C13.9786 13.0707 13.8297 13.3416 13.6354 13.5522C13.3152 13.8993 12.8004 14.1611 12 14.1611C11.1996 14.1611 10.6848 13.8993 10.3646 13.5522C10.0343 13.1943 9.83515 12.6622 9.83515 12C9.83515 11.3378 10.0343 10.8057 10.3646 10.4478C10.5753 10.2195 10.8702 10.028 11.2752 9.92376L10.0375 8.67201Z" fill="currentColor"/>
<path d="M20.0477 19.656C20.2638 19.4407 20.308 19.1181 20.1799 18.859L5.78318 4.36397L4.99048 3.56867C4.72057 3.29786 4.28217 3.29708 4.01129 3.56692C3.74041 3.83675 3.73963 4.27503 4.00954 4.54583L6.4942 7.03866L7.65163 8.19989L16.1624 16.7386L17.2966 17.8766L19.0685 19.6543C19.3384 19.9251 19.7768 19.9259 20.0477 19.656Z" fill="currentColor"/>
</svg>

<svg width="24" height="24" fill="none" xmlns="http://www.w3.org/2000/svg"><path fill-rule="evenodd" clip-rule="evenodd" d="M19.076 17.813C17.506 19.094 15.22 20 12 20c-3.887 0-6.413-1.32-7.96-3.027C2.518 15.293 2 13.298 2 12s.518-3.293 2.04-4.973A8.412 8.412 0 0 1 6.55 5.144l1.028 1.04.095.096C6.59 6.74 5.78 7.36 5.18 8.023 3.93 9.402 3.525 11.032 3.525 12s.405 2.598 1.654 3.977c1.225 1.352 3.318 2.525 6.821 2.525 2.826 0 4.734-.763 6.009-1.768l.327.33.74.749zm.972-.94C21.502 15.216 22 13.274 22 12c0-1.298-.518-3.293-2.04-4.973C18.412 5.32 15.886 4 12 4c-1.567 0-2.913.215-4.063.582l1.204 1.223A12.497 12.497 0 0 1 12 5.498c3.503 0 5.596 1.173 6.82 2.525 1.25 1.379 1.655 3.009 1.655 3.977 0 .925-.37 2.455-1.493 3.792l1.066 1.082zm-4.284-4.347c.02-.174.03-.35.03-.526 0-.98-.298-1.935-.96-2.654-.674-.729-1.648-1.133-2.834-1.133a4.93 4.93 0 0 0-.464.022l4.228 4.291zm-5.726-3.854c-.33.177-.621.403-.871.674-.663.719-.96 1.674-.96 2.654s.297 1.935.96 2.654c.673.729 1.647 1.133 2.833 1.133 1.186 0 2.16-.404 2.833-1.133.186-.201.343-.421.472-.654l-1.237-1.251a1.94 1.94 0 0 1-.433.803c-.32.347-.835.61-1.635.61s-1.315-.263-1.635-.61c-.33-.358-.53-.89-.53-1.552s.2-1.194.53-1.552c.21-.229.505-.42.91-.524l-1.238-1.252z" fill="currentColor"/><path d="M20.048 19.656a.692.692 0 0 0 .132-.797L5.783 4.364l-.793-.795a.693.693 0 0 0-.98.977l2.484 2.493 1.158 1.16 8.51 8.54 1.135 1.138 1.771 1.777c.27.271.709.272.98.002z" fill="currentColor"/></svg>
